static/icons/icon_right.svg

<?xml version="1.0" encoding="UTF-8"?>
<svg width="22px" height="42px" viewBox="0 0 22 42" version="1.1" xmlns="http://www.w3.org/2000/svg" xmlns:xlink="http://www.w3.org/1999/xlink">
    <!-- Generator: sketchtool 51.2 (57519) - http://www.bohemiancoding.com/sketch -->
    <title>F74E8D11-059D-494A-8969-6F6C82BBA688-447-000038869EC7096F</title>
    <desc>Created with sketchtool.</desc>
    <defs></defs>
    <g id="Page-1" stroke="none" stroke-width="1" fill="none" fill-rule="evenodd">
        <g id="MH-Home" transform="translate(-1207.000000, -2608.000000)">
            <rect fill="#FFFFFF" x="0" y="0" width="1280" height="3408"></rect>
            <g id="Client" transform="translate(64.000000, 2467.000000)" fill="#C9C9C9" fill-rule="nonzero">
                <g id="back_right" transform="translate(1143.000000, 141.000000)">
                    <g id="icon_backright" transform="translate(11.000000, 21.000000) scale(-1, 1) translate(-11.000000, -21.000000) ">
                        <g id="back">
                            <path d="M2.85088241,20.898905 L21.6531826,2.02134437 C22.1156058,1.55707026 22.1156058,0.812479698 21.6531826,0.348205585 C21.1907595,-0.116068528 20.4491374,-0.116068528 19.9867143,0.348205585 L0.346817371,20.0667156 C-0.11560579,20.5309897 -0.11560579,21.2755802 0.346817371,21.7398544 L19.9867143,41.4496044 C20.2135634,41.6773616 20.5189371,41.8 20.815586,41.8 C21.1122348,41.8 21.4176086,41.6861214 21.6444577,41.4496044 C22.1068808,40.9853303 22.1068808,40.2407398 21.6444577,39.7764657 L2.85088241,20.898905 Z" id="Shape"></path>
                        </g>
                    </g>
                </g>
            </g>
        </g>
    </g>
</svg>

<svg height="42" viewBox="0 0 22 42" width="22" xmlns="http://www.w3.org/2000/svg"><g fill="none" fill-rule="evenodd"><path d="m-1207-2608h1280v3408h-1280z" fill="#fff"/><path d="m2.85088241 20.898905 18.80230019-18.87756063c.4624232-.46427411.4624232-1.20886467 0-1.67313878-.4624231-.46427412-1.2040452-.46427412-1.6664683 0l-19.63989693 19.71851001c-.46242316.4642741-.46242316 1.2088646 0 1.6731388l19.63989693 19.70975c.2268491.2277572.5322228.3503956.8288717.3503956.2966488 0 .6020226-.1138786.8288717-.3503956.4624231-.4642741.4624231-1.2088646 0-1.6731387z" fill="#c9c9c9" fill-rule="nonzero" transform="matrix(-1 0 0 1 22 0)"/></g></svg>
